gamepad-outline.svg

<svg fill="currentColor" viewBox="0 0 24 24"><path d="M7.5 9H2v6h5.5l3-3zM6 13H4v-2h2zm9-5.5V2H9v5.5l3 3zM11 4h2v2h-2zM9 16.5V22h6v-5.5l-3-3zm4 3.5h-2v-2h2zm3.5-11-3 3 3 3H22V9zm3.5 4h-2v-2h2z"/></svg>

<svg  viewBox="0 0 24 24" fill="currentColor"><path  d="M7.5 9H2V15H7.5L10.5 12L7.5 9M6 13H4V11H6V13M15 7.5V2H9V7.5L12 10.5L15 7.5M11 4H13V6H11V4M9 16.5V22H15V16.5L12 13.5L9 16.5M13 20H11V18H13V20M16.5 9L13.5 12L16.5 15H22V9H16.5M20 13H18V11H20V13Z"/></svg>
